packages/icons/raw/imported/MediaMonitor.svg

<svg width="32" height="32" viewBox="0 0 32 32" fill="none" xmlns="http://www.w3.org/2000/svg">
<path d="M10.5 24C10.2239 24 10 24.2239 10 24.5C10 24.7761 10.2239 25 10.5 25V24ZM21.5 25C21.7761 25 22 24.7761 22 24.5C22 24.2239 21.7761 24 21.5 24V25ZM9.63152 8H22.3685V7H9.63152V8ZM25 10.622V17.2697H26V10.622H25ZM22.3685 19.8917H9.63152V20.8917H22.3685V19.8917ZM7 17.2697V10.622H6V17.2697H7ZM9.63152 19.8917C8.87932 19.8917 8.36532 19.8906 7.97988 19.839C7.60867 19.7892 7.43247 19.7009 7.31161 19.5804L6.60559 20.2886C6.94333 20.6253 7.36549 20.7655 7.84703 20.8301C8.31435 20.8927 8.90751 20.8917 9.63152 20.8917V19.8917ZM6 17.2697C6 17.9914 5.99893 18.5831 6.06181 19.0493C6.12665 19.5302 6.26763 19.9516 6.60559 20.2886L7.31161 19.5804C7.19097 19.4601 7.10265 19.2851 7.05284 18.9157C7.00107 18.5318 7 18.0197 7 17.2697H6ZM25 17.2697C25 18.0197 24.9989 18.5318 24.9472 18.9157C24.8974 19.2851 24.809 19.4601 24.6884 19.5804L25.3944 20.2886C25.7324 19.9516 25.8734 19.5301 25.9382 19.0493C26.0011 18.5831 26 17.9914 26 17.2697H25ZM22.3685 20.8917C23.0925 20.8917 23.6856 20.8927 24.153 20.8301C24.6345 20.7655 25.0567 20.6253 25.3944 20.2886L24.6884 19.5804C24.5675 19.7009 24.3913 19.7892 24.0201 19.839C23.6347 19.8906 23.1207 19.8917 22.3685 19.8917V20.8917ZM22.3685 8C23.1207 8 23.6347 8.00106 24.0201 8.05272C24.3913 8.10247 24.5675 8.19081 24.6884 8.3113L25.3944 7.60311C25.0567 7.2664 24.6345 7.12613 24.153 7.06158C23.6856 6.99894 23.0925 7 22.3685 7V8ZM26 10.622C26 9.90029 26.0011 9.30858 25.9382 8.84232C25.8734 8.36152 25.7324 7.94003 25.3944 7.60311L24.6884 8.3113C24.809 8.43157 24.8974 8.60662 24.9472 8.97597C24.9989 9.35987 25 9.87194 25 10.622H26ZM9.63152 7C8.90751 7 8.31435 6.99894 7.84703 7.06158C7.36549 7.12613 6.94333 7.2664 6.60559 7.60311L7.31161 8.3113C7.43247 8.19081 7.60867 8.10247 7.97988 8.05272C8.36532 8.00106 8.87932 8 9.63152 8V7ZM7 10.622C7 9.87194 7.00107 9.35987 7.05284 8.97597C7.10265 8.60662 7.19097 8.43157 7.31161 8.3113L6.60559 7.60311C6.26763 7.94003 6.12665 8.36152 6.06181 8.84232C5.99893 9.30859 6 9.9003 6 10.622H7ZM13 20.6685V24.4288H14V20.6685H13ZM18.1169 20.6685V24.4883H19.1169V20.6685H18.1169ZM10.5 25H21.5V24H10.5V25Z" fill="black"/>
</svg>

<svg width="32" height="32" fill="none" xmlns="http://www.w3.org/2000/svg"><path d="M10.5 24a.5.5 0 0 0 0 1v-1Zm11 1a.5.5 0 0 0 0-1v1ZM9.632 8h12.737V7H9.632v1ZM25 10.622v6.648h1v-6.648h-1Zm-2.631 9.27H9.632v1h12.737v-1ZM7 17.27v-6.648H6v6.648h1Zm2.632 2.622c-.753 0-1.267-.001-1.652-.053-.371-.05-.548-.138-.668-.259l-.706.709c.337.336.76.476 1.241.541.467.063 1.06.062 1.785.062v-1ZM6 17.27c0 .721-.001 1.313.062 1.78.065.48.206.902.544 1.239l.706-.709c-.121-.12-.21-.295-.26-.664C7.003 18.532 7 18.02 7 17.27H6Zm19 0c0 .75-.001 1.262-.053 1.646-.05.37-.138.544-.259.664l.706.709c.338-.337.48-.759.544-1.24.063-.466.062-1.058.062-1.78h-1Zm-2.631 3.622c.724 0 1.317 0 1.784-.062.482-.064.904-.205 1.241-.541l-.706-.709c-.12.12-.297.21-.668.259-.385.052-.9.053-1.651.053v1Zm0-12.892c.752 0 1.266.001 1.651.053.371.05.547.138.668.258l.706-.708c-.337-.337-.76-.477-1.241-.541-.467-.063-1.06-.062-1.784-.062v1ZM26 10.622c0-.722.001-1.313-.062-1.78-.065-.48-.206-.902-.544-1.239l-.706.708c.121.12.21.296.26.665.05.384.052.896.052 1.646h1ZM9.632 7c-.724 0-1.318-.001-1.785.062-.482.064-.904.204-1.241.541l.706.708c.12-.12.297-.209.668-.258C8.365 8 8.88 8 9.632 8V7ZM7 10.622c0-.75.001-1.262.053-1.646.05-.37.138-.544.259-.665l-.706-.708c-.338.337-.48.759-.544 1.24C5.999 9.308 6 9.9 6 10.621h1Zm6 10.047v3.76h1v-3.76h-1Zm5.117 0v3.82h1v-3.82h-1ZM10.5 25h11v-1h-11v1Z" fill="#000"/></svg>
